X:115
T:Rundarium efter Ankarloo
T:(SvL Skåne nr. 115)
Z:Patrik Månsson, 2009-01-03
S:efter Johan Ankarloo
O:Näsum, Skåne
B:Svenska Låtar Skåne
N:Ankarloo hade den efter Tundahl. Rundarium spelades upp när det dracks och skålades. Man figurerade mot varandra med glasen i hand i takt med musiken. (SvL)
M:2/4
L:1/16
K:G
|: d2dc B2BA | AGFG A2B2 | c2cB A2AG | FDEF G2 z2 :|
|: d2dc B2Bc | dgbg d2B2 | c2cB A2ag | fdef gfge |
d2dc B2Bc | dgbg d2B2 | c2cB A2ag | fdef g4 :|

